svg/account.svg

<svg xmlns="http://www.w3.org/2000/svg" width="24" height="24" viewBox="0 0 24 24">
	<g fill="none" stroke="currentColor" stroke-width="2" stroke-linecap="round">
		<path d="M4 21V20C4 16.6863 6.68629 14 10 14H14C17.3137 14 20 16.6863 20 20V21" stroke-dasharray="28" stroke-dashoffset="28">
			<animate attributeName="stroke-dashoffset" values="28;0" dur="0.4s" fill="freeze" />
		</path>
		<path d="M12 11C9.79086 11 8 9.20914 8 7C8 4.79086 9.79086 3 12 3C14.2091 3 16 4.79086 16 7C16 9.20914 14.2091 11 12 11Z" stroke-dasharray="28" stroke-dashoffset="28">
			<animate attributeName="stroke-dashoffset" values="28;0" begin="0.5s" dur="0.4s" fill="freeze" />
		</path>
	</g>
</svg>

<svg xmlns="http://www.w3.org/2000/svg" width="24" height="24" viewBox="0 0 24 24">
	<g fill="none" stroke="currentColor" stroke-width="2" stroke-linecap="round" stroke-linejoin="round">
		<path d="M4 21v-1c0 -3.31 2.69 -6 6 -6h4c3.31 0 6 2.69 6 6v1" stroke-dasharray="32" stroke-dashoffset="32">
			<animate attributeName="stroke-dashoffset" values="32;0" dur="0.4s" fill="freeze" />
		</path>
		<path d="M12 11c-2.21 0 -4 -1.79 -4 -4c0 -2.21 1.79 -4 4 -4c2.21 0 4 1.79 4 4c0 2.21 -1.79 4 -4 4Z" stroke-dasharray="32" stroke-dashoffset="32">
			<animate attributeName="stroke-dashoffset" values="32;0" begin="0.4s" dur="0.4s" fill="freeze" />
		</path>
	</g>
</svg>
